X: 40766
T: Tourish's Tour Around The Box
R: reel
M: 4/4
K: Gmajor
D/E/|=FEF cFA|G2G d^cA|=cBc ABc|BGG G2
D/E/|=FEF cFA|G2G d^cA|=cBc d^fa|gdB G2:|
z|_BAG =Bcd|^cAG ^FDD|=FEC ^FGA|^FGA G2
z|_BAB c=Bc|d^fa g2a|bag ag^f|gdB G2||

